cellphone-message-off.svg

<svg fill="currentColor" viewBox="0 0 24 24"><path d="M2.39 1.73 1.11 3l1.11 1.11C2.08 4.38 2 4.68 2 5v14a2 2 0 0 0 2 2h7c1.1 0 2-.9 2-2v-4.11l7.84 7.84 1.27-1.27zM11 17H4V7h1.11L11 12.89zM23 4.5v3c0 .83-.67 1.5-1.5 1.5H18l-2.9 2.9-.1-.1V4.5c0-.83.67-1.5 1.5-1.5h5c.83 0 1.5.67 1.5 1.5M10.2 7l-4-4H11c1.1 0 2 .9 2 2v4.8l-2-2V7z"/></svg>

<svg  viewBox="0 0 24 24" fill="currentColor"><path  d="M2.39 1.73L1.11 3L2.22 4.11C2.08 4.38 2 4.68 2 5V19C2 20.1 2.89 21 4 21H11C12.1 21 13 20.1 13 19V14.89L20.84 22.73L22.11 21.46L2.39 1.73M11 17H4V7H5.11L11 12.89V17M23 4.5V7.5C23 8.33 22.33 9 21.5 9H18L15.1 11.9L15 11.8V4.5C15 3.67 15.67 3 16.5 3H21.5C22.33 3 23 3.67 23 4.5M10.2 7L6.2 3H11C12.1 3 13 3.9 13 5V9.8L11 7.8V7H10.2"/></svg>
